images/sh-icn-2.svg

<svg width="50" height="50" viewBox="0 0 50 50" fill="none" xmlns="http://www.w3.org/2000/svg">
<path d="M45.1896 37.2798C44.7993 37.2844 44.8422 37.2654 44.3232 37.3018V25.161C44.3232 23.8617 43.2661 22.8046 41.9668 22.8046H36.0176C36.0144 22.8046 36.0113 22.8041 36.0081 22.8041H29.1573V4.51455L34.776 9.9457C35.0936 10.2527 35.2757 10.682 35.2757 11.1237V20.0841C35.2757 20.4886 35.6036 20.8165 36.0081 20.8165C36.4126 20.8165 36.7405 20.4886 36.7405 20.0841V11.1237C36.7405 10.2872 36.3956 9.47392 35.794 8.89248L28.9339 2.26132C28.7797 2.1166 28.4842 1.98672 28.1915 2.09365L15.8848 6.23037V3.37881C15.894 2.13281 14.7761 1.04834 13.4756 1.12392C12.2317 1.12392 11.2197 2.13545 11.2197 3.37881V7.79843L7.9999 8.88076C6.73516 9.30595 5.88535 10.488 5.88535 11.8224V37.2838C2.62607 37.3673 0 40.0427 0 43.3217V47.0461C0 48.0572 0.822559 48.8797 1.83359 48.8797H48.1663C49.1774 48.8797 49.9999 48.0571 49.9999 47.0461V42.09C50 39.4377 47.8421 37.2798 45.1896 37.2798ZM45.1896 38.7446C47.0344 38.7446 48.5352 40.2454 48.5352 42.0901V42.8585H41.4307V42.0901C41.4323 40.0881 43.1914 38.5712 45.1896 38.7446ZM42.8584 25.161V37.6797C41.1578 38.4221 39.9658 40.119 39.9658 42.09V42.8584H29.1573V24.2694H41.9668C42.4584 24.2694 42.8584 24.6694 42.8584 25.161ZM12.6846 3.37881C12.6846 2.94316 13.0395 2.58877 13.4756 2.58877C13.8673 2.53125 14.3947 2.83838 14.4199 3.37881V6.72275L12.6846 7.30605V3.37881ZM5.88545 38.7473V42.8585H1.48809C1.71592 40.6024 3.58887 38.8248 5.88545 38.7473ZM1.46484 47.0462V44.3233H5.88545V47.4149H1.83369C1.63027 47.4149 1.46484 47.2495 1.46484 47.0462ZM7.35029 11.8224C7.35029 11.1179 7.79893 10.4938 8.4667 10.2693L27.6926 3.80683V7.79755L11.7188 13.167C11.3354 13.2958 11.129 13.7111 11.2579 14.0946C11.3607 14.4007 11.6461 14.5938 11.9521 14.5938C12.0294 14.5938 12.1081 14.5815 12.1855 14.5555L27.6926 9.34306V13.0691L11.7188 18.4385C11.3354 18.5674 11.129 18.9827 11.2579 19.3661C11.3607 19.6722 11.6461 19.8653 11.9521 19.8653C12.0294 19.8653 12.1081 19.853 12.1855 19.827L27.6926 14.6144V18.3405L11.7188 23.71C11.3354 23.8388 11.129 24.2541 11.2579 24.6376C11.3607 24.9436 11.6461 25.1368 11.9521 25.1368C12.0294 25.1368 12.1081 25.1245 12.1855 25.0984L27.6926 19.886V23.5343C27.6926 23.5353 27.6925 23.5361 27.6925 23.5371V23.6122L11.7188 28.9814C11.3354 29.1103 11.129 29.5257 11.2579 29.9091C11.3607 30.2151 11.6461 30.4083 11.9521 30.4083C12.0294 30.4083 12.1081 30.396 12.1855 30.3699L27.6924 25.1574V28.8836L17.7181 32.2363C17.3347 32.3651 17.1283 32.7805 17.2572 33.164C17.3601 33.47 17.6454 33.6632 17.9514 33.6632C18.0287 33.6632 18.1074 33.6509 18.1849 33.6248L27.6924 30.4289V47.4148H21.365V39.8042C21.365 39.3054 21.1371 38.8462 20.7397 38.5446C20.3424 38.2431 19.8389 38.147 19.3584 38.2811L12.5413 40.1843C11.7633 40.4015 11.2199 41.1173 11.2199 41.9251V47.4148H7.35029V11.8224ZM12.6848 41.9252C12.6848 41.7721 12.7878 41.6364 12.9352 41.5952L15.56 40.8624V47.4149H12.6847L12.6848 41.9252ZM17.0248 47.4149V40.4534L19.7522 39.692C19.7891 39.6816 19.8234 39.6881 19.854 39.7114C19.8846 39.7347 19.9001 39.7659 19.9001 39.8043V47.4149H17.0248ZM29.1573 47.4149V44.3233H39.9658V47.4149H29.1573ZM48.5352 47.0462C48.5352 47.2496 48.3697 47.4149 48.1664 47.4149H41.4307V44.3233H48.5352V47.0462Z" fill="#EE421D"/>
<path d="M11.9521 35.6798C12.0294 35.6798 12.1081 35.6675 12.1856 35.6414L14.9049 34.7273C15.2883 34.5985 15.4946 34.1832 15.3657 33.7997C15.2368 33.4162 14.8215 33.2098 14.4381 33.3389L11.7188 34.2529C11.3354 34.3817 11.129 34.7971 11.2579 35.1806C11.3608 35.4865 11.6461 35.6798 11.9521 35.6798Z" fill="#EE421D"/>
<path d="M32.3649 30.3104H39.5476C40.2288 30.3104 40.7829 29.7563 40.7829 29.0753V27.3123C40.7829 26.6311 40.2288 26.077 39.5476 26.077H32.3649C31.6838 26.077 31.1298 26.6311 31.1298 27.3123V29.0753C31.1298 29.7563 31.6839 30.3104 32.3649 30.3104ZM32.5946 27.5419H39.318V28.8456H32.5946V27.5419Z" fill="#EE421D"/>
<path d="M32.3649 35.8798H39.5476C40.2288 35.8798 40.7829 35.3257 40.7829 34.6445V32.8815C40.7829 32.2004 40.2288 31.6464 39.5476 31.6464H32.3649C31.6838 31.6464 31.1298 32.2005 31.1298 32.8815V34.6445C31.1298 35.3257 31.6839 35.8798 32.3649 35.8798ZM32.5946 33.1112H39.318V34.4149H32.5946V33.1112Z" fill="#EE421D"/>
<path d="M32.3649 41.506H34.7407C35.4218 41.506 35.976 40.9519 35.976 40.2709V38.5079C35.976 37.8267 35.4218 37.2726 34.7407 37.2726H32.3649C31.6838 37.2726 31.1298 37.8267 31.1298 38.5079V40.2709C31.1298 40.9519 31.6839 41.506 32.3649 41.506ZM32.5946 38.7375H34.5111V40.0412H32.5946V38.7375Z" fill="#EE421D"/>
</svg>

<svg xmlns="http://www.w3.org/2000/svg" width="50" height="50" fill="none"><path fill="#EE421D" d="M45.19 37.28c-.39.004-.348-.015-.867.022V25.16a2.36 2.36 0 0 0-2.356-2.356H29.158V4.514l5.618 5.43c.318.308.5.737.5 1.179v8.96a.732.732 0 1 0 1.464 0v-8.96a3.12 3.12 0 0 0-.946-2.232l-6.86-6.63c-.154-.145-.45-.275-.742-.168L15.885 6.23V3.38c.009-1.246-1.109-2.33-2.41-2.255a2.26 2.26 0 0 0-2.255 2.255v4.42L8 8.88a3.1 3.1 0 0 0-2.115 2.941v25.462A6.05 6.05 0 0 0 0 43.322v3.724c0 1.011.823 1.834 1.834 1.834h46.332A1.836 1.836 0 0 0 50 47.046V42.09a4.816 4.816 0 0 0-4.81-4.81m0 1.465a3.35 3.35 0 0 1 3.345 3.345v.768h-7.104v-.768c.001-2.002 1.76-3.519 3.759-3.345M42.858 25.16V37.68a4.82 4.82 0 0 0-2.892 4.41v.768H29.157V24.27h12.81c.491 0 .891.4.891.892M12.685 3.379c0-.436.354-.79.79-.79.392-.058.92.25.945.79v3.344l-1.735.583zm-6.8 35.368v4.111H1.488a4.584 4.584 0 0 1 4.397-4.11m-4.42 8.3v-2.724h4.42v3.092H1.834a.37.37 0 0 1-.37-.369M7.35 11.821c0-.704.449-1.328 1.117-1.553l19.226-6.462v3.99l-15.974 5.37a.732.732 0 1 0 .466 1.389l15.508-5.213v3.726l-15.974 5.37a.732.732 0 0 0 .466 1.388l15.508-5.213v3.726l-15.974 5.37a.732.732 0 1 0 .466 1.388l15.508-5.212v3.726l-15.974 5.37a.733.733 0 0 0 .466 1.388l15.507-5.213v3.727l-9.974 3.352a.732.732 0 1 0 .467 1.389l9.507-3.196v16.986h-6.327v-7.61a1.57 1.57 0 0 0-.625-1.26 1.57 1.57 0 0 0-1.382-.264l-6.817 1.903a1.81 1.81 0 0 0-1.321 1.741v5.49H7.35zm5.335 30.103c0-.153.103-.289.25-.33l2.625-.733v6.553h-2.875zm4.34 5.49v-6.962l2.727-.761a.11.11 0 0 1 .102.02q.046.035.046.092v7.61zm12.132 0v-3.092h10.809v3.092zm19.378-.369a.37.37 0 0 1-.369.369h-6.735v-3.092h7.104z"/><path fill="#EE421D" d="M11.952 35.68a.7.7 0 0 0 .234-.039l2.719-.914a.732.732 0 1 0-.467-1.388l-2.72.914a.732.732 0 0 0 .234 1.427M32.365 30.31h7.183c.68 0 1.235-.554 1.235-1.235v-1.763c0-.68-.554-1.235-1.235-1.235h-7.183c-.681 0-1.235.554-1.235 1.235v1.763c0 .681.554 1.235 1.235 1.235m.23-2.768h6.723v1.304h-6.723zM32.365 35.88h7.183c.68 0 1.235-.554 1.235-1.236v-1.762c0-.682-.554-1.236-1.235-1.236h-7.183c-.681 0-1.235.554-1.235 1.236v1.763c0 .68.554 1.235 1.235 1.235m.23-2.769h6.723v1.304h-6.723zM32.365 41.506h2.376c.68 0 1.235-.554 1.235-1.235v-1.763c0-.681-.554-1.235-1.235-1.235h-2.376c-.681 0-1.235.554-1.235 1.235v1.763c0 .68.554 1.235 1.235 1.235m.23-2.769h1.916v1.304h-1.916z"/></svg>
